**kern	**kern	**dynam
*part1	*part1	*part1
*staff2	*staff1	*
*I"Piano	*	*
*clefF4	*clefG2	*
*k[b-]	*k[b-]	*
=1	=1	=1
4CC)	(8B-L	<
.	8c	.
(8C	8eJ)	.
.	(8qe/	[ <
4E) 4B-	8aL	.
.	8g	.
(8C	8eJ	.
=	=	=
4FF)	8fL	.
.	8a	.
8C	8ccJ	.
4D-X 4F 4A-X 4c-X	[4a-X) 4gg	[
8D- 8F 8A- 8c-	8a-] 8ff	.
=	=	=
4C 4F 4An 4cn	8anL 8cc	p
.	8f 8a	.
.	8qcc/	.
8e	8fJ 8b-	.
!	!LO:TX:b:i:t=rall.	!
(8cL	(8aL	.
8Bn	8d	.
8CJ 8B-X	8cJ 8e	.
=	=	=
4FF) 4C 4A	4c) 4f	.
.	8qcc/	pp
(8c	8ff	.
4.A;) 4.f	4r	.
.	8r;	.
=||	=||	=||
!	!	!LO:DY:a
4DD	4d	mf mf
(8D	(8a	.
.	8qb-/	.
4G) 4B- 4d	4cc)	.
(8D	8b-	.
=	=	=
.	16qqa/LL	.
.	16qqb-/JJ	.
4CC#X) 4C#X	4a	.
(8C#	(8e	.
4D) 4F 4A 4d	4a)	.
(8AA	8r	.
=	=	=
4DD)	(8aL	.
.	8g	.
(8AA	8fJ)	.
4E) 4G#X 4d	(8eL	.
.	8qg/	.
.	8f	.
(((8BB- 8D 8E 8G#	8eJ)	.
=	=	=
*-	*-	*-
!!!system-decoration: {(s1,s2)}
